build/img/grid.svg

<svg width="1920" height="1305" viewBox="0 0 1920 1305" fill="none" xmlns="http://www.w3.org/2000/svg">
<g opacity="0.2">
<path fill-rule="evenodd" clip-rule="evenodd" d="M-1.99998 1041.5L1920.5 1041.5L1920.5 1042.5L-1.99998 1042.5L-1.99998 1041.5Z" fill="url(#paint0_linear)"/>
<path fill-rule="evenodd" clip-rule="evenodd" d="M1544.03 -3.29118e-05L1544.03 1305L1543.05 1305L1543.05 -3.2998e-05L1544.03 -3.29118e-05Z" fill="url(#paint1_linear)"/>
<path fill-rule="evenodd" clip-rule="evenodd" d="M1249.08 -5.86974e-05L1249.08 1305L1248.09 1305L1248.09 -5.87836e-05L1249.08 -5.86974e-05Z" fill="url(#paint2_linear)"/>
<path fill-rule="evenodd" clip-rule="evenodd" d="M957.087 -8.42243e-05L957.086 1305L956.1 1305L956.1 -8.43105e-05L957.087 -8.42243e-05Z" fill="url(#paint3_linear)"/>
<path fill-rule="evenodd" clip-rule="evenodd" d="M663.12 -0.000109924L663.12 1305L662.133 1305L662.133 -0.00011001L663.12 -0.000109924Z" fill="url(#paint4_linear)"/>
<path fill-rule="evenodd" clip-rule="evenodd" d="M374.709 -0.000135137L374.709 1305L373.722 1305L373.722 -0.000135224L374.709 -0.000135137Z" fill="url(#paint5_linear)"/>
<path fill-rule="evenodd" clip-rule="evenodd" d="M1838 -7.21238e-06L1838 1305L1837.01 1305L1837.01 -7.29862e-06L1838 -7.21238e-06Z" fill="url(#paint6_linear)"/>
<path fill-rule="evenodd" clip-rule="evenodd" d="M80.7422 -0.000160837L80.7421 1305L79.7556 1305L79.7557 -0.000160923L80.7422 -0.000160837Z" fill="url(#paint7_linear)"/>
<path fill-rule="evenodd" clip-rule="evenodd" d="M-1.99995 748.5L1920.5 748.5L1920.5 749.5L-1.99995 749.5L-1.99995 748.5Z" fill="url(#paint8_linear)"/>
<path fill-rule="evenodd" clip-rule="evenodd" d="M-1.99993 455.5L1920.5 455.5L1920.5 456.5L-1.99993 456.5L-1.99993 455.5Z" fill="url(#paint9_linear)"/>
</g>
<defs>
<linearGradient id="paint0_linear" x1="973" y1="1333" x2="973" y2="311.999" gradientUnits="userSpaceOnUse">
<stop stop-color="#5CC773"/>
<stop offset="1" stop-color="#5CC773" stop-opacity="0.18"/>
</linearGradient>
<linearGradient id="paint1_linear" x1="973" y1="1333" x2="973" y2="311.999" gradientUnits="userSpaceOnUse">
<stop stop-color="#5CC773"/>
<stop offset="1" stop-color="#5CC773" stop-opacity="0.18"/>
</linearGradient>
<linearGradient id="paint2_linear" x1="973" y1="1333" x2="973" y2="311.999" gradientUnits="userSpaceOnUse">
<stop stop-color="#5CC773"/>
<stop offset="1" stop-color="#5CC773" stop-opacity="0.18"/>
</linearGradient>
<linearGradient id="paint3_linear" x1="973" y1="1333" x2="973" y2="311.999" gradientUnits="userSpaceOnUse">
<stop stop-color="#5CC773"/>
<stop offset="1" stop-color="#5CC773" stop-opacity="0.18"/>
</linearGradient>
<linearGradient id="paint4_linear" x1="973" y1="1333" x2="973" y2="311.999" gradientUnits="userSpaceOnUse">
<stop stop-color="#5CC773"/>
<stop offset="1" stop-color="#5CC773" stop-opacity="0.18"/>
</linearGradient>
<linearGradient id="paint5_linear" x1="973" y1="1333" x2="973" y2="311.999" gradientUnits="userSpaceOnUse">
<stop stop-color="#5CC773"/>
<stop offset="1" stop-color="#5CC773" stop-opacity="0.18"/>
</linearGradient>
<linearGradient id="paint6_linear" x1="973" y1="1333" x2="973" y2="311.999" gradientUnits="userSpaceOnUse">
<stop stop-color="#5CC773"/>
<stop offset="1" stop-color="#5CC773" stop-opacity="0.18"/>
</linearGradient>
<linearGradient id="paint7_linear" x1="973" y1="1333" x2="973" y2="311.999" gradientUnits="userSpaceOnUse">
<stop stop-color="#5CC773"/>
<stop offset="1" stop-color="#5CC773" stop-opacity="0.18"/>
</linearGradient>
<linearGradient id="paint8_linear" x1="973" y1="1333" x2="973" y2="311.999" gradientUnits="userSpaceOnUse">
<stop stop-color="#5CC773"/>
<stop offset="1" stop-color="#5CC773" stop-opacity="0.18"/>
</linearGradient>
<linearGradient id="paint9_linear" x1="973" y1="1333" x2="973" y2="311.999" gradientUnits="userSpaceOnUse">
<stop stop-color="#5CC773"/>
<stop offset="1" stop-color="#5CC773" stop-opacity="0.18"/>
</linearGradient>
</defs>
</svg>

<svg width="1920" height="1305" fill="none" xmlns="http://www.w3.org/2000/svg">
    <g opacity=".2" fill-rule="evenodd" clip-rule="evenodd">
        <path d="M-2 1041.5h1922.5v1H-2v-1z" fill="url(#a)"/>
        <path d="M1544.03 0v1305h-.98V0h.98z" fill="url(#b)"/>
        <path d="M1249.08 0v1305h-.99V0h.99z" fill="url(#c)"/>
        <path d="m957.087 0-.001 1305h-.986V0h.987z" fill="url(#d)"/>
        <path d="M663.12 0v1305h-.987V0h.987z" fill="url(#e)"/>
        <path d="M374.709 0v1305h-.987V0h.987z" fill="url(#f)"/>
        <path d="M1838 0v1305h-.99V0h.99z" fill="url(#g)"/>
        <path d="M80.742 0v1305h-.986V0h.986z" fill="url(#h)"/>
        <path d="M-2 748.5h1922.5v1H-2v-1z" fill="url(#i)"/>
        <path d="M-2 455.5h1922.5v1H-2v-1z" fill="url(#j)"/>
    </g>
    <defs>
        <linearGradient id="a" x1="973" y1="1333" x2="973" y2="311.999" gradientUnits="userSpaceOnUse">
            <stop stop-color="#5CC773"/>
            <stop offset="1" stop-color="#5CC773" stop-opacity=".18"/>
        </linearGradient>
        <linearGradient id="b" x1="973" y1="1333" x2="973" y2="311.999" gradientUnits="userSpaceOnUse">
            <stop stop-color="#5CC773"/>
            <stop offset="1" stop-color="#5CC773" stop-opacity=".18"/>
        </linearGradient>
        <linearGradient id="c" x1="973" y1="1333" x2="973" y2="311.999" gradientUnits="userSpaceOnUse">
            <stop stop-color="#5CC773"/>
            <stop offset="1" stop-color="#5CC773" stop-opacity=".18"/>
        </linearGradient>
        <linearGradient id="d" x1="973" y1="1333" x2="973" y2="311.999" gradientUnits="userSpaceOnUse">
            <stop stop-color="#5CC773"/>
            <stop offset="1" stop-color="#5CC773" stop-opacity=".18"/>
        </linearGradient>
        <linearGradient id="e" x1="973" y1="1333" x2="973" y2="311.999" gradientUnits="userSpaceOnUse">
            <stop stop-color="#5CC773"/>
            <stop offset="1" stop-color="#5CC773" stop-opacity=".18"/>
        </linearGradient>
        <linearGradient id="f" x1="973" y1="1333" x2="973" y2="311.999" gradientUnits="userSpaceOnUse">
            <stop stop-color="#5CC773"/>
            <stop offset="1" stop-color="#5CC773" stop-opacity=".18"/>
        </linearGradient>
        <linearGradient id="g" x1="973" y1="1333" x2="973" y2="311.999" gradientUnits="userSpaceOnUse">
            <stop stop-color="#5CC773"/>
            <stop offset="1" stop-color="#5CC773" stop-opacity=".18"/>
        </linearGradient>
        <linearGradient id="h" x1="973" y1="1333" x2="973" y2="311.999" gradientUnits="userSpaceOnUse">
            <stop stop-color="#5CC773"/>
            <stop offset="1" stop-color="#5CC773" stop-opacity=".18"/>
        </linearGradient>
        <linearGradient id="i" x1="973" y1="1333" x2="973" y2="311.999" gradientUnits="userSpaceOnUse">
            <stop stop-color="#5CC773"/>
            <stop offset="1" stop-color="#5CC773" stop-opacity=".18"/>
        </linearGradient>
        <linearGradient id="j" x1="973" y1="1333" x2="973" y2="311.999" gradientUnits="userSpaceOnUse">
            <stop stop-color="#5CC773"/>
            <stop offset="1" stop-color="#5CC773" stop-opacity=".18"/>
        </linearGradient>
    </defs>
</svg>
